X: 5537
T: Burning Snowball, The
R: jig
M: 6/8
K: Edorian
|:ABd e2g|ged B2A|GGG d2e|edB edB|
ABd e2g|ged B2A|GBd g2e|1 dBG A2 A1:|2 dBG A2d||
|:gge a2g|ged B2A|GGG d2e|edB edB|
gee aee|ged B2A|GBd g2e|1 dBGA2 d1:|2 dBGA2 A||

